!! 00000] TT[WS
!!!OTL: Liang xianghao
!!!ARE: Asia, China,ÿShanxi Ningwu
!! Ethnic Group: Han
!! WI, 153 (1)
!!!SCT: J0184
!!!YEM: Copyright 1995, estate of Helmut Schaffrath.
**kern
*ICvox
*Ivox
*M2/4
*k[b-e-]
*B-:
{4ddd
8bb-
8ccc
=1
4fff
8bb-
8gg
=2
8ddd
4bb-
16ccc
16ddd
=3
8bb-
16aa
16gg
4ff}
=4
{8ddd
4bb-
8ccc
=5
8ff
8bb-
8aa
8gg
=6
8ff
8gg
8gg
16ff
16dd
=7
2ff}
==
!!!AGN: Xiaodiao. Qingge
!!!ONB: ESAC (Essen Associative Code) Database: CHINA
!!!AMT: simple duple
!!!AIN: vox
!!!EED: Helmut Schaffrath
!!!EEV: 1.0
*-
